svg/set/STX/T.svg

<?xml version="1.0" encoding="UTF-8" standalone="no"?>
<svg
   width="613"
   height="490.69299"
   viewBox="0 0 613 490.69299"
   version="1.1"
   xml:space="preserve"
   style="clip-rule:evenodd;fill-rule:evenodd;stroke-linejoin:round;stroke-miterlimit:2"
   id="svg9"
   xmlns="http://www.w3.org/2000/svg"
   xmlns:svg="http://www.w3.org/2000/svg">
    <path
   d="M 18.646,0 C 23.049,47.376 31.951,80.261 40.166,96.006 24.238,96.436 9.123,99.04 0,100.443 c 5.119,28.932 29.215,68.488 38.51,81.25 -5.113,1.654 -9.879,3.408 -14.01,5 15.5,32.25 34.375,49.625 55.25,61.875 -7.5,5.125 -25.031,18.297 -33.156,35.172 18,12.625 43.719,24.922 71.594,30.047 -10.625,8.875 -21.657,32.047 -21.657,32.047 31.75,8.125 46.094,5.922 61.469,3.422 l -7.281,24.672 c 15.375,-0.125 46.344,-6.703 55.594,-11.203 -0.625,7.875 8.843,23.421 12.218,26.921 -7.625,7.625 -20.01,41.018 -22.635,52.643 13.631,1.336 27.896,2.087 39.866,0.77 -0.969,16.173 3.292,25.866 8.115,35.517 11.557,-2.557 20.127,-6.11 28.635,-9.683 6.408,13.337 19.572,21.8 33.988,21.8 14.416,0 27.58,-8.463 33.988,-21.8 8.508,3.573 17.078,7.126 28.635,9.683 4.823,-9.651 9.084,-19.344 8.115,-35.517 11.971,1.317 26.235,0.566 39.866,-0.77 -2.625,-11.625 -15.01,-45.018 -22.635,-52.643 3.375,-3.5 12.844,-19.046 12.219,-26.921 9.25,4.5 40.218,11.078 55.593,11.203 L 455,349.256 c 15.375,2.5 29.719,4.703 61.469,-3.422 0,0 -11.031,-23.172 -21.656,-32.047 27.875,-5.125 53.593,-17.422 71.593,-30.047 -8.125,-16.875 -25.656,-30.047 -33.156,-35.172 20.875,-12.25 39.75,-29.625 55.25,-61.875 -4.131,-1.592 -8.897,-3.346 -14.01,-5 9.295,-12.762 33.391,-52.318 38.51,-81.25 -9.123,-1.403 -24.238,-4.007 -40.166,-4.437 8.215,-15.745 17.117,-48.63 21.52,-96.006 0,0 -45.137,1.409 -51.088,4.615 -50.581,27.248 -80.648,59.468 -101.221,79.373 -20.622,19.954 -39.848,43.688 -69.848,47.063 0,0 14.961,15.588 17.461,19.338 2.25,8.25 -0.295,38.127 -2.045,57.877 l -8.007,16.517 -11.311,-33.978 7.723,-7.237 c -7,-8 -44.018,-34.033 -69.518,-34.033 -25.5,0 -62.518,26.033 -69.518,34.033 l 7.723,7.237 -11.31,33.978 -8.008,-16.517 c -1.75,-19.75 -4.295,-49.627 -2.045,-57.877 2.5,-3.75 17.461,-19.338 17.461,-19.338 -30,-3.375 -49.226,-27.109 -69.848,-47.063 C 150.382,64.083 120.315,31.863 69.734,4.615 63.783,1.409 18.646,0 18.646,0 Z"
   style="fill-rule:nonzero"
   id="path1" />
    <path
   d="m 34.621,11.373 c -1.147,-0.022 -2.107,-0.023 -2.82,0.002 2.673,45.27 14.091,73.982 22.191,84.891 19.257,1.332 37.537,7.236 45.758,23.677 -19.5,-5.75 -13.25,-16.5 -86.5,-11.5 3.575,17.08 26.938,54.972 36.496,69.998 7.85,-1.964 16.032,-3.32 23.756,-3.246 10.147,0.098 19.498,2.655 26.248,9.498 -26.218,-4.723 -39.058,-1.185 -60.002,7.442 5.387,10.877 22.824,39.4 64.127,56.527 l 2.875,2.469 c -23.069,1.414 -45.227,26.721 -44.625,28.969 0.664,2.477 38.317,22.764 76.324,23.736 l 1.957,2.131 c -4.949,2.917 -27.838,29.647 -26.734,31.558 1.257,2.177 39.653,4.47 62.016,-1.628 l 1.14,0.996 c -3.182,2.828 -11.965,22.453 -10.859,23.558 1.177,1.178 35.392,-2.935 48.65,-14.426 l 1.432,0.811 c -0.619,4.773 1.916,25.784 4.879,26.953 2.889,1.141 31.912,-20.597 35.978,-35.182 1.9,-0.423 2.573,-1.022 2.832,-1.679 0.977,7.002 2.672,9.341 4.069,13.613 -33.765,28.108 -54.529,79.189 -53.233,81.117 1.532,2.279 30.914,0.509 36.924,-1.789 l 1.57,1.215 c -3.535,1.237 -2.326,31.542 0.862,33.92 2.666,1.989 19.447,-6.902 29.328,-14.385 1.498,18.606 10.814,27.836 27.24,27.836 16.426,0 25.742,-9.23 27.24,-27.836 9.881,7.483 26.662,16.374 29.328,14.385 3.188,-2.378 4.397,-32.683 0.862,-33.92 l 1.57,-1.215 c 6.01,2.298 35.392,4.068 36.924,1.789 1.296,-1.928 -19.468,-53.009 -53.233,-81.117 1.397,-4.272 3.092,-6.611 4.069,-13.613 0.259,0.657 0.932,1.256 2.832,1.679 4.066,14.585 33.089,36.322 35.978,35.182 2.963,-1.169 5.498,-22.18 4.879,-26.953 l 1.432,-0.811 c 13.258,11.491 47.473,15.604 48.65,14.426 1.106,-1.105 -7.677,-20.73 -10.859,-23.558 l 1.14,-0.997 c 22.363,6.099 60.759,3.806 62.016,1.629 1.103,-1.911 -21.785,-28.641 -26.734,-31.558 l 1.957,-2.131 c 38.007,-0.972 75.66,-21.259 76.324,-23.736 0.602,-2.248 -21.556,-27.555 -44.625,-28.969 l 2.875,-2.469 c 41.303,-17.127 58.74,-45.65 64.127,-56.527 -20.944,-8.627 -33.784,-12.166 -60.002,-7.442 6.75,-6.843 16.101,-9.4 26.248,-9.498 7.724,-0.074 15.906,1.282 23.756,3.246 9.558,-15.027 32.921,-52.918 36.496,-69.998 -73.25,-5 -67,5.75 -86.5,11.5 8.221,-16.441 26.501,-22.345 45.758,-23.677 8.1,-10.909 19.518,-39.621 22.191,-84.891 -0.713,-0.025 -1.673,-0.024 -2.82,-0.002 -8.027,0.154 -25.175,1.385 -30.315,2.762 -5.561,1.49 -64.291,39.205 -97.767,78.086 -15.782,18.33 -45.643,42.095 -57.047,44.847 0,0 6.768,8.856 8,14.125 1.495,6.393 -2.614,58.091 -3.537,61.535 -0.927,3.461 -11.845,30.083 -39.963,54.465 l -3.037,-1.357 c 0.786,-1.966 17.93,-29.215 17.93,-29.215 -5.899,-17.107 -20.794,-46.331 -12.536,-52.82 0,0 -33.747,-23.608 -53.607,-23.608 -19.86,0 -53.607,23.608 -53.607,23.608 8.258,6.489 -6.637,35.713 -12.536,52.82 0,0 17.144,27.249 17.93,29.215 l -3.037,1.357 c -28.118,-24.382 -39.036,-51.004 -39.963,-54.465 -0.923,-3.444 -5.032,-55.142 -3.537,-61.535 1.232,-5.269 8,-14.125 8,-14.125 C 208.346,134.315 178.485,110.551 162.703,92.221 129.227,53.34 70.497,15.625 64.936,14.135 59.796,12.758 42.648,11.527 34.621,11.373 Z m 133.498,139.811 c 0.595,0.036 0.948,0.682 0.914,2.197 0,0 -1.792,55.487 -1.262,57.467 0.48,1.788 8.563,20.598 20.493,35.468 7.95,9.91 23.337,26.935 22.199,28.18 -1.574,1.722 -14.198,-2.045 -18.219,-6.316 -10.337,-10.981 -32.325,-46.725 -33.92,-48.133 -3.799,-3.355 -14.859,-14.188 -14.859,-14.188 0,0 14.949,6.781 14.949,-5.519 V 164.4 c 0,-2.042 7.128,-13.373 9.705,-13.216 z m 276.762,0 c 2.577,-0.157 9.705,11.174 9.705,13.216 v 35.94 c 0,12.3 14.949,5.519 14.949,5.519 0,0 -11.06,10.833 -14.859,14.188 -1.595,1.408 -23.583,37.152 -33.92,48.133 -4.021,4.271 -16.645,8.038 -18.219,6.316 -1.138,-1.245 14.249,-18.27 22.199,-28.18 11.93,-14.87 20.013,-33.68 20.493,-35.468 0.53,-1.98 -1.262,-57.467 -1.262,-57.467 -0.033,-1.515 0.319,-2.161 0.914,-2.197 z m -138.381,75.015 9.547,15.906 h 8.131 l -17.678,50.1 -17.678,-50.1 h 8.131 z"
   style="fill:url(#_Radial1);fill-rule:nonzero"
   id="path2" />
    <path
   d="m 34.621,11.373 c -1.147,-0.022 -2.107,-0.023 -2.82,0.002 2.673,45.27 14.091,73.982 22.191,84.891 19.257,1.332 37.537,7.236 45.758,23.677 -19.5,-5.75 -13.25,-16.5 -86.5,-11.5 3.575,17.08 26.938,54.972 36.496,69.998 7.85,-1.964 16.032,-3.32 23.756,-3.246 10.147,0.098 19.498,2.655 26.248,9.498 -26.218,-4.723 -39.058,-1.185 -60.002,7.442 5.387,10.877 22.824,39.4 64.127,56.527 l 2.875,2.469 c -23.069,1.414 -45.227,26.721 -44.625,28.969 0.664,2.477 38.317,22.764 76.324,23.736 l 1.957,2.131 c -4.949,2.917 -27.838,29.647 -26.734,31.558 1.257,2.177 39.653,4.47 62.016,-1.628 l 1.14,0.996 c -3.182,2.828 -11.965,22.453 -10.859,23.558 1.177,1.178 35.392,-2.935 48.65,-14.426 l 1.432,0.811 c -0.619,4.773 1.916,25.784 4.879,26.953 2.889,1.141 31.912,-20.597 35.978,-35.182 1.9,-0.423 2.573,-1.022 2.832,-1.679 0.977,7.002 2.672,9.341 4.069,13.613 -33.765,28.108 -54.529,79.189 -53.233,81.117 1.532,2.279 30.914,0.509 36.924,-1.789 l 1.57,1.215 c -3.535,1.237 -2.326,31.542 0.862,33.92 2.666,1.989 19.447,-6.902 29.328,-14.385 1.498,18.606 10.814,27.836 27.24,27.836 16.426,0 25.742,-9.23 27.24,-27.836 9.881,7.483 26.662,16.374 29.328,14.385 3.188,-2.378 4.397,-32.683 0.862,-33.92 l 1.57,-1.215 c 6.01,2.298 35.392,4.068 36.924,1.789 1.296,-1.928 -19.468,-53.009 -53.233,-81.117 1.397,-4.272 3.092,-6.611 4.069,-13.613 0.259,0.657 0.932,1.256 2.832,1.679 4.066,14.585 33.089,36.322 35.978,35.182 2.963,-1.169 5.498,-22.18 4.879,-26.953 l 1.432,-0.811 c 13.258,11.491 47.473,15.604 48.65,14.426 1.106,-1.105 -7.677,-20.73 -10.859,-23.558 l 1.14,-0.997 c 22.363,6.099 60.759,3.806 62.016,1.629 1.103,-1.911 -21.785,-28.641 -26.734,-31.558 l 1.957,-2.131 c 38.007,-0.972 75.66,-21.259 76.324,-23.736 0.602,-2.248 -21.556,-27.555 -44.625,-28.969 l 2.875,-2.469 c 41.303,-17.127 58.74,-45.65 64.127,-56.527 -20.944,-8.627 -33.784,-12.166 -60.002,-7.442 6.75,-6.843 16.101,-9.4 26.248,-9.498 7.724,-0.074 15.906,1.282 23.756,3.246 9.558,-15.027 32.921,-52.918 36.496,-69.998 -73.25,-5 -67,5.75 -86.5,11.5 8.221,-16.441 26.501,-22.345 45.758,-23.677 8.1,-10.909 19.518,-39.621 22.191,-84.891 -0.713,-0.025 -1.673,-0.024 -2.82,-0.002 -8.027,0.154 -25.175,1.385 -30.315,2.762 -5.561,1.49 -64.291,39.205 -97.767,78.086 -15.782,18.33 -45.643,42.095 -57.047,44.847 0,0 6.768,8.856 8,14.125 1.495,6.393 -2.614,58.091 -3.537,61.535 -0.927,3.461 -11.845,30.083 -39.963,54.465 l -3.037,-1.357 c 0.786,-1.966 17.93,-29.215 17.93,-29.215 -5.899,-17.107 -20.794,-46.331 -12.536,-52.82 0,0 -33.747,-23.608 -53.607,-23.608 -19.86,0 -53.607,23.608 -53.607,23.608 8.258,6.489 -6.637,35.713 -12.536,52.82 0,0 17.144,27.249 17.93,29.215 l -3.037,1.357 c -28.118,-24.382 -39.036,-51.004 -39.963,-54.465 -0.923,-3.444 -5.032,-55.142 -3.537,-61.535 1.232,-5.269 8,-14.125 8,-14.125 C 208.346,134.315 178.485,110.551 162.703,92.221 129.227,53.34 70.497,15.625 64.936,14.135 59.796,12.758 42.648,11.527 34.621,11.373 Z m 133.498,139.811 c 0.595,0.036 0.948,0.682 0.914,2.197 0,0 -1.792,55.487 -1.262,57.467 0.48,1.788 8.563,20.598 20.493,35.468 7.95,9.91 23.337,26.935 22.199,28.18 -1.574,1.722 -14.198,-2.045 -18.219,-6.316 -10.337,-10.981 -32.325,-46.725 -33.92,-48.133 -3.799,-3.355 -14.859,-14.188 -14.859,-14.188 0,0 14.949,6.781 14.949,-5.519 V 164.4 c 0,-2.042 7.128,-13.373 9.705,-13.216 z m 276.762,0 c 2.577,-0.157 9.705,11.174 9.705,13.216 v 35.94 c 0,12.3 14.949,5.519 14.949,5.519 0,0 -11.06,10.833 -14.859,14.188 -1.595,1.408 -23.583,37.152 -33.92,48.133 -4.021,4.271 -16.645,8.038 -18.219,6.316 -1.138,-1.245 14.249,-18.27 22.199,-28.18 11.93,-14.87 20.013,-33.68 20.493,-35.468 0.53,-1.98 -1.262,-57.467 -1.262,-57.467 -0.033,-1.515 0.319,-2.161 0.914,-2.197 z m -138.381,75.015 9.547,15.906 h 8.131 l -17.678,50.1 -17.678,-50.1 h 8.131 z"
   style="fill:url(#_Radial2);fill-rule:nonzero"
   id="path3" />
    <defs
   id="defs9">
        <radialGradient
   id="_Radial1"
   cx="0"
   cy="0"
   r="1"
   gradientUnits="userSpaceOnUse"
   gradientTransform="matrix(-2.89563e-5,349.998,-348.892,-9.90283e-5,306.5,226.199)"><stop
     offset="0"
     style="stop-color:rgb(250,163,37);stop-opacity:1"
     id="stop3" /><stop
     offset="0.5"
     style="stop-color:rgb(224,126,37);stop-opacity:1"
     id="stop4" /><stop
     offset="1"
     style="stop-color:rgb(187,52,38);stop-opacity:1"
     id="stop5" /></radialGradient>
        <radialGradient
   id="_Radial2"
   cx="0"
   cy="0"
   r="1"
   gradientUnits="userSpaceOnUse"
   gradientTransform="matrix(-2.89563e-5,349.998,-348.892,-9.90283e-5,306.5,226.199)"><stop
     offset="0"
     style="stop-color:rgb(97,44,117);stop-opacity:1"
     id="stop6" /><stop
     offset="0"
     style="stop-color:rgb(191,153,195);stop-opacity:1"
     id="stop7" /><stop
     offset="0.5"
     style="stop-color:rgb(123,81,144);stop-opacity:1"
     id="stop8" /><stop
     offset="1"
     style="stop-color:rgb(97,44,117);stop-opacity:1"
     id="stop9" /></radialGradient>
    </defs>
</svg>

<?xml version="1.0" encoding="UTF-8" standalone="no"?>
<!DOCTYPE svg PUBLIC "-//W3C//DTD SVG 1.1//EN" "http://www.w3.org/Graphics/SVG/1.1/DTD/svg11.dtd">
<svg width="100%" height="100%" viewBox="0 0 613 491" version="1.1" xmlns="http://www.w3.org/2000/svg" xmlns:xlink="http://www.w3.org/1999/xlink" xml:space="preserve" xmlns:serif="http://www.serif.com/" style="fill-rule:evenodd;clip-rule:evenodd;stroke-linejoin:round;stroke-miterlimit:2;">
    <path d="M18.646,0C23.049,47.376 31.951,80.261 40.166,96.006C24.238,96.436 9.123,99.04 0,100.443C5.119,129.375 29.215,168.931 38.51,181.693C33.397,183.347 28.631,185.101 24.5,186.693C40,218.943 58.875,236.318 79.75,248.568C72.25,253.693 54.719,266.865 46.594,283.74C64.594,296.365 90.313,308.662 118.188,313.787C107.563,322.662 96.531,345.834 96.531,345.834C128.281,353.959 142.625,351.756 158,349.256L150.719,373.928C166.094,373.803 197.063,367.225 206.313,362.725C205.688,370.6 215.156,386.146 218.531,389.646C210.906,397.271 198.521,430.664 195.896,442.289C209.527,443.625 223.792,444.376 235.762,443.059C234.793,459.232 239.054,468.925 243.877,478.576C255.434,476.019 264.004,472.466 272.512,468.893C278.92,482.23 292.084,490.693 306.5,490.693C320.916,490.693 334.08,482.23 340.488,468.893C348.996,472.466 357.566,476.019 369.123,478.576C373.946,468.925 378.207,459.232 377.238,443.059C389.209,444.376 403.473,443.625 417.104,442.289C414.479,430.664 402.094,397.271 394.469,389.646C397.844,386.146 407.313,370.6 406.688,362.725C415.938,367.225 446.906,373.803 462.281,373.928L455,349.256C470.375,351.756 484.719,353.959 516.469,345.834C516.469,345.834 505.438,322.662 494.813,313.787C522.688,308.662 548.406,296.365 566.406,283.74C558.281,266.865 540.75,253.693 533.25,248.568C554.125,236.318 573,218.943 588.5,186.693C584.369,185.101 579.603,183.347 574.49,181.693C583.785,168.931 607.881,129.375 613,100.443C603.877,99.04 588.762,96.436 572.834,96.006C581.049,80.261 589.951,47.376 594.354,0C594.354,0 549.217,1.409 543.266,4.615C492.685,31.863 462.618,64.083 442.045,83.988C421.423,103.942 402.197,127.676 372.197,131.051C372.197,131.051 387.158,146.639 389.658,150.389C391.908,158.639 389.363,188.516 387.613,208.266L379.606,224.783L368.295,190.805L376.018,183.568C369.018,175.568 332,149.535 306.5,149.535C281,149.535 243.982,175.568 236.982,183.568L244.705,190.805L233.395,224.783L225.387,208.266C223.637,188.516 221.092,158.639 223.342,150.389C225.842,146.639 240.803,131.051 240.803,131.051C210.803,127.676 191.577,103.942 170.955,83.988C150.382,64.083 120.315,31.863 69.734,4.615C63.783,1.409 18.646,0 18.646,0Z" style="fill-rule:nonzero;"/>
    <path d="M34.621,11.373C33.474,11.351 32.514,11.35 31.801,11.375C34.474,56.645 45.892,85.357 53.992,96.266C73.249,97.598 91.529,103.502 99.75,119.943C80.25,114.193 86.5,103.443 13.25,108.443C16.825,125.523 40.188,163.415 49.746,178.441C57.596,176.477 65.778,175.121 73.502,175.195C83.649,175.293 93,177.85 99.75,184.693C73.532,179.97 60.692,183.508 39.748,192.135C45.135,203.012 62.572,231.535 103.875,248.662L106.75,251.131C83.681,252.545 61.523,277.852 62.125,280.1C62.789,282.577 100.442,302.864 138.449,303.836L140.406,305.967C135.457,308.884 112.568,335.614 113.672,337.525C114.929,339.702 153.325,341.995 175.688,335.897L176.828,336.893C173.646,339.721 164.863,359.346 165.969,360.451C167.146,361.629 201.361,357.516 214.619,346.025L216.051,346.836C215.432,351.609 217.967,372.62 220.93,373.789C223.819,374.93 252.842,353.192 256.908,338.607C258.808,338.184 259.481,337.585 259.74,336.928C260.717,343.93 262.412,346.269 263.809,350.541C230.044,378.649 209.28,429.73 210.576,431.658C212.108,433.937 241.49,432.167 247.5,429.869L249.07,431.084C245.535,432.321 246.744,462.626 249.932,465.004C252.598,466.993 269.379,458.102 279.26,450.619C280.758,469.225 290.074,478.455 306.5,478.455C322.926,478.455 332.242,469.225 333.74,450.619C343.621,458.102 360.402,466.993 363.068,465.004C366.256,462.626 367.465,432.321 363.93,431.084L365.5,429.869C371.51,432.167 400.892,433.937 402.424,431.658C403.72,429.73 382.956,378.649 349.191,350.541C350.588,346.269 352.283,343.93 353.26,336.928C353.519,337.585 354.192,338.184 356.092,338.607C360.158,353.192 389.181,374.929 392.07,373.789C395.033,372.62 397.568,351.609 396.949,346.836L398.381,346.025C411.639,357.516 445.854,361.629 447.031,360.451C448.137,359.346 439.354,339.721 436.172,336.893L437.312,335.896C459.675,341.995 498.071,339.702 499.328,337.525C500.431,335.614 477.543,308.884 472.594,305.967L474.551,303.836C512.558,302.864 550.211,282.577 550.875,280.1C551.477,277.852 529.319,252.545 506.25,251.131L509.125,248.662C550.428,231.535 567.865,203.012 573.252,192.135C552.308,183.508 539.468,179.969 513.25,184.693C520,177.85 529.351,175.293 539.498,175.195C547.222,175.121 555.404,176.477 563.254,178.441C572.812,163.414 596.175,125.523 599.75,108.443C526.5,103.443 532.75,114.193 513.25,119.943C521.471,103.502 539.751,97.598 559.008,96.266C567.108,85.357 578.526,56.645 581.199,11.375C580.486,11.35 579.526,11.351 578.379,11.373C570.352,11.527 553.204,12.758 548.064,14.135C542.503,15.625 483.773,53.34 450.297,92.221C434.515,110.551 404.654,134.316 393.25,137.068C393.25,137.068 400.018,145.924 401.25,151.193C402.745,157.586 398.636,209.284 397.713,212.728C396.786,216.189 385.868,242.811 357.75,267.193L354.713,265.836C355.499,263.87 372.643,236.621 372.643,236.621C366.744,219.514 351.849,190.29 360.107,183.801C360.107,183.801 326.36,160.193 306.5,160.193C286.64,160.193 252.893,183.801 252.893,183.801C261.151,190.29 246.256,219.514 240.357,236.621C240.357,236.621 257.501,263.87 258.287,265.836L255.25,267.193C227.132,242.811 216.214,216.189 215.287,212.728C214.364,209.284 210.255,157.586 211.75,151.193C212.982,145.924 219.75,137.068 219.75,137.068C208.346,134.315 178.485,110.551 162.703,92.221C129.227,53.34 70.497,15.625 64.936,14.135C59.796,12.758 42.648,11.527 34.621,11.373L34.621,11.373ZM168.119,151.184C168.714,151.22 169.067,151.866 169.033,153.381C169.033,153.381 167.241,208.868 167.771,210.848C168.251,212.636 176.334,231.446 188.264,246.316C196.214,256.226 211.601,273.251 210.463,274.496C208.889,276.218 196.265,272.451 192.244,268.18C181.907,257.199 159.919,221.455 158.324,220.047C154.525,216.692 143.465,205.859 143.465,205.859C143.465,205.859 158.414,212.64 158.414,200.34L158.414,164.4C158.414,162.358 165.542,151.027 168.119,151.184ZM444.881,151.184C447.458,151.027 454.586,162.358 454.586,164.4L454.586,200.34C454.586,212.64 469.535,205.859 469.535,205.859C469.535,205.859 458.475,216.692 454.676,220.047C453.081,221.455 431.093,257.199 420.756,268.18C416.735,272.451 404.111,276.218 402.537,274.496C401.399,273.251 416.786,256.226 424.736,246.316C436.666,231.446 444.749,212.636 445.229,210.848C445.759,208.868 443.967,153.381 443.967,153.381C443.934,151.866 444.286,151.22 444.881,151.184ZM306.5,226.199L316.047,242.105L324.178,242.105L306.5,292.205L288.822,242.105L296.953,242.105L306.5,226.199Z" style="fill:url(#_Radial1);fill-rule:nonzero;"/>
    <path d="M34.621,11.373C33.474,11.351 32.514,11.35 31.801,11.375C34.474,56.645 45.892,85.357 53.992,96.266C73.249,97.598 91.529,103.502 99.75,119.943C80.25,114.193 86.5,103.443 13.25,108.443C16.825,125.523 40.188,163.415 49.746,178.441C57.596,176.477 65.778,175.121 73.502,175.195C83.649,175.293 93,177.85 99.75,184.693C73.532,179.97 60.692,183.508 39.748,192.135C45.135,203.012 62.572,231.535 103.875,248.662L106.75,251.131C83.681,252.545 61.523,277.852 62.125,280.1C62.789,282.577 100.442,302.864 138.449,303.836L140.406,305.967C135.457,308.884 112.568,335.614 113.672,337.525C114.929,339.702 153.325,341.995 175.688,335.897L176.828,336.893C173.646,339.721 164.863,359.346 165.969,360.451C167.146,361.629 201.361,357.516 214.619,346.025L216.051,346.836C215.432,351.609 217.967,372.62 220.93,373.789C223.819,374.93 252.842,353.192 256.908,338.607C258.808,338.184 259.481,337.585 259.74,336.928C260.717,343.93 262.412,346.269 263.809,350.541C230.044,378.649 209.28,429.73 210.576,431.658C212.108,433.937 241.49,432.167 247.5,429.869L249.07,431.084C245.535,432.321 246.744,462.626 249.932,465.004C252.598,466.993 269.379,458.102 279.26,450.619C280.758,469.225 290.074,478.455 306.5,478.455C322.926,478.455 332.242,469.225 333.74,450.619C343.621,458.102 360.402,466.993 363.068,465.004C366.256,462.626 367.465,432.321 363.93,431.084L365.5,429.869C371.51,432.167 400.892,433.937 402.424,431.658C403.72,429.73 382.956,378.649 349.191,350.541C350.588,346.269 352.283,343.93 353.26,336.928C353.519,337.585 354.192,338.184 356.092,338.607C360.158,353.192 389.181,374.929 392.07,373.789C395.033,372.62 397.568,351.609 396.949,346.836L398.381,346.025C411.639,357.516 445.854,361.629 447.031,360.451C448.137,359.346 439.354,339.721 436.172,336.893L437.312,335.896C459.675,341.995 498.071,339.702 499.328,337.525C500.431,335.614 477.543,308.884 472.594,305.967L474.551,303.836C512.558,302.864 550.211,282.577 550.875,280.1C551.477,277.852 529.319,252.545 506.25,251.131L509.125,248.662C550.428,231.535 567.865,203.012 573.252,192.135C552.308,183.508 539.468,179.969 513.25,184.693C520,177.85 529.351,175.293 539.498,175.195C547.222,175.121 555.404,176.477 563.254,178.441C572.812,163.414 596.175,125.523 599.75,108.443C526.5,103.443 532.75,114.193 513.25,119.943C521.471,103.502 539.751,97.598 559.008,96.266C567.108,85.357 578.526,56.645 581.199,11.375C580.486,11.35 579.526,11.351 578.379,11.373C570.352,11.527 553.204,12.758 548.064,14.135C542.503,15.625 483.773,53.34 450.297,92.221C434.515,110.551 404.654,134.316 393.25,137.068C393.25,137.068 400.018,145.924 401.25,151.193C402.745,157.586 398.636,209.284 397.713,212.728C396.786,216.189 385.868,242.811 357.75,267.193L354.713,265.836C355.499,263.87 372.643,236.621 372.643,236.621C366.744,219.514 351.849,190.29 360.107,183.801C360.107,183.801 326.36,160.193 306.5,160.193C286.64,160.193 252.893,183.801 252.893,183.801C261.151,190.29 246.256,219.514 240.357,236.621C240.357,236.621 257.501,263.87 258.287,265.836L255.25,267.193C227.132,242.811 216.214,216.189 215.287,212.728C214.364,209.284 210.255,157.586 211.75,151.193C212.982,145.924 219.75,137.068 219.75,137.068C208.346,134.315 178.485,110.551 162.703,92.221C129.227,53.34 70.497,15.625 64.936,14.135C59.796,12.758 42.648,11.527 34.621,11.373L34.621,11.373ZM168.119,151.184C168.714,151.22 169.067,151.866 169.033,153.381C169.033,153.381 167.241,208.868 167.771,210.848C168.251,212.636 176.334,231.446 188.264,246.316C196.214,256.226 211.601,273.251 210.463,274.496C208.889,276.218 196.265,272.451 192.244,268.18C181.907,257.199 159.919,221.455 158.324,220.047C154.525,216.692 143.465,205.859 143.465,205.859C143.465,205.859 158.414,212.64 158.414,200.34L158.414,164.4C158.414,162.358 165.542,151.027 168.119,151.184ZM444.881,151.184C447.458,151.027 454.586,162.358 454.586,164.4L454.586,200.34C454.586,212.64 469.535,205.859 469.535,205.859C469.535,205.859 458.475,216.692 454.676,220.047C453.081,221.455 431.093,257.199 420.756,268.18C416.735,272.451 404.111,276.218 402.537,274.496C401.399,273.251 416.786,256.226 424.736,246.316C436.666,231.446 444.749,212.636 445.229,210.848C445.759,208.868 443.967,153.381 443.967,153.381C443.934,151.866 444.286,151.22 444.881,151.184ZM306.5,226.199L316.047,242.105L324.178,242.105L306.5,292.205L288.822,242.105L296.953,242.105L306.5,226.199Z" style="fill:url(#_Radial2);fill-rule:nonzero;"/>
    <defs>
        <radialGradient id="_Radial1" cx="0" cy="0" r="1" gradientUnits="userSpaceOnUse" gradientTransform="matrix(-2.89563e-05,349.998,-348.892,-9.90283e-05,306.5,226.199)"><stop offset="0" style="stop-color:rgb(250,163,37);stop-opacity:1"/><stop offset="0.5" style="stop-color:rgb(224,126,37);stop-opacity:1"/><stop offset="1" style="stop-color:rgb(187,52,38);stop-opacity:1"/></radialGradient>
        <radialGradient id="_Radial2" cx="0" cy="0" r="1" gradientUnits="userSpaceOnUse" gradientTransform="matrix(-2.89563e-05,349.998,-348.892,-9.90283e-05,306.5,226.199)"><stop offset="0" style="stop-color:rgb(97,44,117);stop-opacity:1"/><stop offset="0" style="stop-color:rgb(191,153,195);stop-opacity:1"/><stop offset="0.5" style="stop-color:rgb(123,81,144);stop-opacity:1"/><stop offset="1" style="stop-color:rgb(97,44,117);stop-opacity:1"/></radialGradient>
    </defs>
</svg>
